dist/assets/logo.svg

<svg
  width="65"
  height="40"
  viewBox="0 0 65 40"
  fill="#000"
  xmlns="http://www.w3.org/2000/svg"
  >
  <path d="M0.824158 29.5238H5.48701V5.00952H0.824158V29.5238Z"></path>
  <path d="M16.8884 30.0381C22.3398 30.0381 26.0769 25.9924 26.0769 20.7467C26.0769 15.5009 22.3398 11.4552 16.8884 11.4552C11.4369 11.4552 7.69978 15.5009 7.69978 20.7467C7.69978 25.9924 11.4369 30.0381 16.8884 30.0381ZM16.8884 26.4724C14.0084 26.4724 12.4312 24.1752 12.4312 20.7467C12.4312 17.3181 14.0084 14.9867 16.8884 14.9867C19.7341 14.9867 21.3455 17.3181 21.3455 20.7467C21.3455 24.1752 19.7341 26.4724 16.8884 26.4724Z"></path>
  <path d="M35.993 35.5238C38.5987 35.5238 40.8616 34.9067 42.3358 33.5352C43.6387 32.3352 44.4273 30.6552 44.4273 28.1867V11.9352H39.9359V13.7867H39.8673C38.8044 12.3124 37.193 11.4552 34.9987 11.4552C30.5416 11.4552 27.3873 14.8152 27.3873 20.0609C27.3873 25.3752 31.2273 28.4609 35.1359 28.4609C37.3644 28.4609 38.7016 27.5695 39.7301 26.4038H39.833V28.3238C39.833 30.7238 38.5644 31.9924 35.9244 31.9924C33.7644 31.9924 32.7701 31.1352 32.393 30.0381H27.7644C28.2444 33.4667 31.193 35.5238 35.993 35.5238ZM35.9244 24.7238C33.5244 24.7238 31.9473 22.9752 31.9473 19.9924C31.9473 17.0438 33.5244 15.1924 35.8901 15.1924C38.7016 15.1924 40.073 17.3867 40.073 19.9581C40.073 22.5638 38.873 24.7238 35.9244 24.7238Z"></path>
  <path d="M55.7611 30.0381C61.2125 30.0381 64.9497 25.9924 64.9497 20.7467C64.9497 15.5009 61.2125 11.4552 55.7611 11.4552C50.3097 11.4552 46.5725 15.5009 46.5725 20.7467C46.5725 25.9924 50.3097 30.0381 55.7611 30.0381ZM55.7611 26.4724C52.8811 26.4724 51.304 24.1752 51.304 20.7467C51.304 17.3181 52.8811 14.9867 55.7611 14.9867C58.6068 14.9867 60.2183 17.3181 60.2183 20.7467C60.2183 24.1752 58.6068 26.4724 55.7611 26.4724Z"></path>
</svg>

<svg xmlns="http://www.w3.org/2000/svg" width="65" height="40"><path d="M.824 29.524h4.663V5.01H.824v24.514Zm16.064.514c5.452 0 9.189-4.046 9.189-9.291 0-5.246-3.737-9.292-9.189-9.292-5.451 0-9.188 4.046-9.188 9.292 0 5.245 3.737 9.291 9.188 9.291Zm0-3.566c-2.88 0-4.457-2.297-4.457-5.725 0-3.429 1.577-5.76 4.457-5.76 2.846 0 4.457 2.331 4.457 5.76 0 3.428-1.61 5.725-4.457 5.725Zm19.105 9.052c2.606 0 4.869-.617 6.343-1.989 1.303-1.2 2.091-2.88 2.091-5.348V11.935h-4.491v1.852h-.069c-1.063-1.475-2.674-2.332-4.868-2.332-4.457 0-7.612 3.36-7.612 8.606 0 5.314 3.84 8.4 7.749 8.4 2.228 0 3.566-.891 4.594-2.057h.103v1.92c0 2.4-1.269 3.668-3.909 3.668-2.16 0-3.154-.857-3.531-1.954h-4.629c.48 3.429 3.429 5.486 8.229 5.486Zm-.069-10.8c-2.4 0-3.977-1.749-3.977-4.732 0-2.948 1.577-4.8 3.943-4.8 2.812 0 4.183 2.195 4.183 4.766 0 2.606-1.2 4.766-4.149 4.766Zm19.837 5.314c5.451 0 9.189-4.046 9.189-9.291 0-5.246-3.738-9.292-9.189-9.292-5.451 0-9.189 4.046-9.189 9.292 0 5.245 3.738 9.291 9.19 9.291Zm0-3.566c-2.88 0-4.457-2.297-4.457-5.725 0-3.429 1.577-5.76 4.457-5.76 2.846 0 4.457 2.331 4.457 5.76 0 3.428-1.611 5.725-4.457 5.725Z"/></svg>
